X:4623
L:1/8
Q:1/4=120
M:2/2
K:D
"^Quick" ag | fafd faa([B-f] | [Bg]2) [Bg]2 [Bg]2 ag | f2{g} [df]2 f2 [df]d | edcB A2 ag | 
 fafd f[df][de][df] | [dg]2 [dg]2 [dg]2 ag | f2 d2 ed c2 | d2 d4 || d2- | dBAG FDFA | 
 B2 AG FD[FA]A | B2 AF E<DFD | A,6 ([CD-] | [DD]2) DD FD[FA]A | ABAG FD[FA]A | fgag fded | d2 d4 ||

